X:1
T: The Victor's Return
C:
R:Jig
Q:180
K:D
M:6/8
L:1/16
gf|:e2A2A2 f2e2d2|e2A2A2 f4d2|e2A2A2 g2f2e2|d2B2G2 G2g2f2|
e2A2A2 f2e2d2|e2A2A2 f4d2|a2g2f2 g2f2e2|1d2B2G2 A4gf:|2d2B2G2 A4B2|
|:A4a2 a2b2a2|g2e2f2 g2d2B2|A4a2 a2b2a2|g2f2e2 d2c2B2|
A4a2 a2b2a2|g2e2f2 g4f2|a2f2e2 e2f2g2|1d2B2G2 A4B2:|2d2B2G2 A4||
